X: 55
T: Missa Prolationum / Credo
N: Derived from Ock1011c-Missa_Prolationum-Credo.krn
C: Johannes Ockeghem
%%abc-version 2.0
%%abcx-abcm2ps-target-version 5.9.1 (29 Sep 2008)
%%abc-creator hum2abc beta
%%abcx-conversion-date 2019/02/17 07:26:15
%%abc-edited-by Jesse Rodin
%%abc-edited-by Chris Gage 08-20-2012
%%abcx-initial-encoding-date 2014/05/13/
%%humdrum-veritas 1579799250
%%humdrum-veritas-data 3924903815
%%linebreak <none>
%%barnumbers 0
L: 1/4
M: 3/1
Q: 1/2=120
%%staves [1 2 3 4]
V: 1 clef=treble
V: 2 clef=treble-8
V: 3 clef=treble-8
V: 4 clef=bass
K: F
[V:1] c12- | 
[V:2] f12- | 
[V:3] c12- | 
[V:4] F,12- | 
[V:1] c12 | 
[V:2] f4a8 | 
[V:3] c12- | 
[V:4] F,12 | 
[V:1] e12 | 
[V:2] a4g8 | 
[V:3] c12 | 
[V:4] C,12 | 
[V:1] e4d8- | 
[V:2] g8d4- | 
[V:3] G12- | 
[V:4] C,6G,6 | 
[V:1] d4d8- | 
[V:2] d4g8 | 
[V:3] G6G6 | 
[V:4] z12 | 
[V:1] d4A8- | 
[V:2] f6edd3c | 
[V:3] d12 | 
[V:4] D,12 | 
[V:1] A4d8 | 
[V:2] f8f4- | 
[V:3] z12 | 
[V:4] A,4B,6A,2 | 
[V:1] c6=BAA3G | 
[V:2] f4f8 | 
[V:3] z4z2A6- | 
[V:4] F,8F,4 | 
[V:1] c12 | 
[V:2] e4f2a4a2 | 
[V:3] A12 | 
[V:4] z4F,8 | 
[V:1] c12 | 
[V:2] g4a6gf | 
[V:3] e4f6e2 | 
[V:4] C,4F,8 | 
[V:1] c12 | 
[V:2] e4f6ef | 
[V:3] c8c4 | 
[V:4] A,4A,8 | 
[V:1] =B4c2e4e2 | 
[V:2] g4f2e4dc | 
[V:3] z4c8 | 
[V:4] G,4C,8 | 
[V:1] d4e6dc | 
[V:2] =B4z4z4 | 
[V:3] G4c8 | 
[V:4] z12 | 
[V:1] =B4c6Bc | 
[V:2] z12 | 
[V:3] e4e8 | 
[V:4] z12 | 
[V:1] d4c2=B4AG | 
[V:2] z12 | 
[V:3] d4G8 | 
[V:4] z12 | 
[V:1] F4z4z4 | 
[V:2] d4c2d2f2eg- | 
[V:3] z12 | 
[V:4] D,4E,2F,3E,C,2 | 
[V:1] z12 | 
[V:2] gfd4f3e/d/c2 | 
[V:3] z12 | 
[V:4] B,,4F,4C,2F,2 | 
[V:1] z12 | 
[V:2] B2f2g2f4e2 | 
[V:3] z12 | 
[V:4] G,2B,4A,2G,4 | 
[V:1] A4G2A2c2=Bd- | 
[V:2] f4z4z4 | 
[V:3] A4=B2c3=BG2 | 
[V:4] F,4z4z4 | 
[V:1] dcA4c3=B/A/G2 | 
[V:2] z12 | 
[V:3] F4c4G2c2 | 
[V:4] z12 | 
[V:1] F2c2d2c4=B2 | 
[V:2] z12 | 
[V:3] d2f4e2d4 | 
[V:4] z12 | 
[V:1] c4z4z4 | 
[V:2] A4B2c2d3e | 
[V:3] c4z4z4 | 
[V:4] z2F,2G,2A,3F,B,2 | 
[V:1] z12 | 
[V:2] f2e2g2fed2e2 | 
[V:3] z12 | 
[V:4] A,2C2B,2A,3F,G,2 | 
[V:1] z12 | 
[V:2] fdd4^c2d4 | 
[V:3] z12 | 
[V:4] D,2F,2E,4D,4 | 
[V:1] E4F2G2A3=B | 
[V:2] z12 | 
[V:3] z2c2d2e3cf2 | 
[V:4] z12 | 
[V:1] c2=B2d2cBA2B2 | 
[V:2] z12 | 
[V:3] e2g2f2e3cd2 | 
[V:4] z12 | 
[V:1] cAA4^G2A4 | 
[V:2] z4z4c4 | 
[V:3] A2c2=B4A4 | 
[V:4] z4z4A,4 | 
[V:1] z12 | 
[V:2] f4e2f2g2a2- | 
[V:3] z12 | 
[V:4] A,2A,4A,2B,2A,2 | 
[V:1] z12 | 
[V:2] ag/f/e4f2d2c2 | 
[V:3] z12 | 
[V:4] D2C2A,4B,2A,2 | 
[V:1] z4z4G4 | 
[V:2] e4d4c4 | 
[V:3] z4z4e4 | 
[V:4] G,2C4=B,2C4 | 
[V:1] c4=B2c2d2e2- | 
[V:2] z12 | 
[V:3] e2e4e2f2e2 | 
[V:4] z12 | 
[V:1] ed/c/=B4c2A2G2 | 
[V:2] z12 | 
[V:3] a2g2e4f2e2 | 
[V:4] z12 | 
[V:1] =B4A4G4 | 
[V:2] z12 | 
[V:3] d2g4^f2g4 | 
[V:4] z4z4z2E,2 | 
[V:1] z12 | 
[V:2] c8d4 | 
[V:3] z12 | 
[V:4] F,3E,C,4B,,4 | 
[V:1] z12 | 
[V:2] c2A4B2c2d2 | 
[V:3] z12 | 
[V:4] C,4D,4C,2F,2- | 
[V:1] z12 | 
[V:2] c2f4e2f4 | 
[V:3] z4z4z2B2 | 
[V:4] F,2A,2G,4F,3E,/D,/ | 
[V:1] G8A4 | 
[V:2] z4e4f4 | 
[V:3] c3BG4F4 | 
[V:4] C,8F,4 | 
[V:1] G2E4F2G2A2 | 
[V:2] d2B2c4z2F2 | 
[V:3] G4A4G2c2- | 
[V:4] z12 | 
[V:1] G2c4=B2c4 | 
[V:2] G2A2B4G4 | 
[V:3] c2e2d4c3=B/A/ | 
[V:4] E,2F,2G,2G,2C,4- | 
[V:1] z4=B4c4 | 
[V:2] c4d4z2c2- | 
[V:3] G8c4 | 
[V:4] C,4G,4A,3F, | 
[V:1] A2F2G4z2C2 | 
[V:2] c2d2B4A4 | 
[V:3] z12 | 
[V:4] A,2B,2G,4F,4 | 
[V:1] D2E2F4D4 | 
[V:2] G2c3BA2B4 | 
[V:3] =B2c2d2d2G4- | 
[V:4] z12 | 
[V:1] G4A4z2G2- | 
[V:2] c2e2d4c4- | 
[V:3] G4d4e3c | 
[V:4] C,4F,4E,2C,2- | 
[V:1] G2A2F4E4 | 
[V:2] c4z4c4 | 
[V:3] e2f2d4c4 | 
[V:4] C,2A,,2B,,4C,4 | 
[V:1] D2G3FE2F4 | 
[V:2] d6e2c2f2 | 
[V:3] z12 | 
[V:4] F,2G,2B,2C2A,4 | 
[V:1] G2B2A4G4- | 
[V:2] ee2df4e2d2 | 
[V:3] G4c4=B2G2- | 
[V:4] G,4F,4G,4 | 
[V:1] G4z4G4 | 
[V:2] g4f2e2d4 | 
[V:3] G2E2F4G4 | 
[V:4] C,2G,2A,2C4B,2 | 
[V:1] A6=B2G2c2 | 
[V:2] c2z2z4z4 | 
[V:3] c2d2f2g2e4 | 
[V:4] C3B,A,2G,2C4 | 
[V:1] =BB2Ac4B2A2 | 
[V:2] z12 | 
[V:3] d4c4d4 | 
[V:4] G,4z4z4 | 
[V:1] d4c2=B2A4 | 
[V:2] z12 | 
[V:3] G2d2e2g4^f2 | 
[V:4] z12 | 
[V:1] G2z2z4z4 | 
[V:2] z4z4z2c2 | 
[V:3] g3fe2d2g4 | 
[V:4] z2C4B,2G,2A,2 | 
[V:1] z12 | 
[V:2] d3ef3de2A2 | 
[V:3] d4z4z4 | 
[V:4] B,4A,4G,2F,2 | 
[V:1] z12 | 
[V:2] B2d4^c2d2f2 | 
[V:3] z12 | 
[V:4] D,4E,4D,4 | 
[V:1] z4z4z2G2 | 
[V:2] e4c2d2B4 | 
[V:3] z2g4f2d2e2 | 
[V:4] C,4E,2F,2G,4 | 
[V:1] A3=Bc3AB2E2 | 
[V:2] A4z2A2G2c2 | 
[V:3] f4e4d2c2 | 
[V:4] F,3E,/D,/C,4z2C,2 | 
[V:1] F2A4G2A2c2 | 
[V:2] d2f4e2f4 | 
[V:3] A4=B4A4 | 
[V:4] F,4G,4F,4 | 
[V:1] =B4G2A2F4 | 
[V:2] g3f/e/d8 | 
[V:3] G4=B2c2d4 | 
[V:4] z2G,4F,2D,2B,,2 | 
[V:1] E4z2E2D2G2 | 
[V:2] z2G4A2B4 | 
[V:3] c3=B/A/G4z2G2 | 
[V:4] C,8G,4 | 
[V:1] A2c4=B2c4 | 
[V:2] c4f4e4 | 
[V:3] c4d4c4 | 
[V:4] z2A,2F,2G,2A,4 | 
[V:1] d3c/=B/A8 | 
[V:2] d2f4edc4 | 
[V:3] z2d4c2A2F2 | 
[V:4] B,3A,/G,/F,4A,4 | 
[V:1] z2D4E2F4 | 
[V:2] =B8=B4 | 
[V:3] G8d4 | 
[V:4] G,6E,2D,4 | 
[V:1] G4c4=B4 | 
[V:2] z2c4A2G4 | 
[V:3] z2e2c2d2e4 | 
[V:4] C,4C,4z4 | 
[V:1] A2c4=BAG4 | 
[V:2] A8B4 | 
[V:3] f3e/d/c4e4 | 
[V:4] F,8G,4 | 
[V:1] ^F8F4 | 
[V:2] A4=B2d4c2 | 
[V:3] d6=B2A4 | 
[V:4] D,8z4 | 
[V:1] z2G4E2D4 | 
[V:2] d2e3cc4=B2 | 
[V:3] G4G4z4 | 
[V:4] G,4E,2C,2D,4 | 
[V:1] E8F4 | 
[V:2] c4z4z4 | 
[V:3] c8d4 | 
[V:4] C,4C2C4=B,2 | 
[V:1] E4F2A4G2 | 
[V:2] c4d2d3cB2 | 
[V:3] A8z4 | 
[V:4] C4F,4G,4 | 
[V:1] A2=B3GG4^F2 | 
[V:2] A2d3=Bc2d4 | 
[V:3] d4=B2G2A4 | 
[V:4] F,2D,2E,4D,4 | 
[V:1] G4z4z4 | 
[V:2] z2c2d2c4A2 | 
[V:3] G4g2g4^f2 | 
[V:4] G,3A,B,2C2A,4 | 
[V:1] G4A2A3GF2 | 
[V:2] B3cA8 | 
[V:3] g4c4d4 | 
[V:4] G,4z2F,4D,2 | 
[V:1] E2A3FG2A4 | 
[V:2] G2c2d2B2c2A2- | 
[V:3] c2A2B4A4 | 
[V:4] E,2F,2B,,3A,,/G,,/F,,2F,2- | 
[V:1] z2G2A2G4E2 | 
[V:2] AFG2F2B3GA2 | 
[V:3] d3ef2g2e4 | 
[V:4] F,2E,2D,2B,,2C,4 | 
[V:1] F3GE8 | 
[V:2] B4G2A2G2cd/e/ | 
[V:3] d4z2c4A2 | 
[V:4] B,,4C,8 | 
[V:1] D2G2A2F2G2E2- | 
[V:2] f2e2c2d2G4 | 
[V:3] =B2c2F3E/D/C2c2- | 
[V:4] D,2C,2z2F,2E,2C,2- | 
[V:1] ECD2C2F3DE2 | 
[V:2] A2FG2AB2c4- | 
[V:3] c2B2A2F2G4 | 
[V:4] C,A,,B,,2C,2D,2C,4 | 
[V:1] F12 ||  
[V:2] c12 ||  
[V:3] F12 ||  
[V:4] F,12 ||  
[V:1]  [K:F] [K:clef=treble][M:2/1]c8- | 
[V:2]  [K:F] [K:clef=treble-8][M:2/1]f8- | 
[V:3]  [K:F] [K:clef=treble-8][M:2/1]z8 | 
[V:4]  [K:F] [K:clef=bass][M:2/1]z8 | 
[V:1] c8- | 
[V:2] f8 | 
[V:3] z8 | 
[V:4] z8 | 
[V:1] c8 | 
[V:2] e4f4 | 
[V:3] z8 | 
[V:4] z8 | 
[V:1] =B4c4 | 
[V:2] d4c4- | 
[V:3] z8 | 
[V:4] z8 | 
[V:1] A4G4- | 
[V:2] c4B4 | 
[V:3] z8 | 
[V:4] z8 | 
[V:1] G4F4 | 
[V:2] c4A4 | 
[V:3] z8 | 
[V:4] z8 | 
[V:1] G4E4- | 
[V:2] G8 | 
[V:3] z8 | 
[V:4] z8 | 
[V:1] E4D4- | 
[V:2] c4d4 | 
[V:3] z8 | 
[V:4] z8 | 
[V:1] D8 | 
[V:2] f8 | 
[V:3] z8 | 
[V:4] z8 | 
[V:1] G4A4- | 
[V:2] e4c4 | 
[V:3] z8 | 
[V:4] z8 | 
[V:1] A4c4- | 
[V:2] d4c4- | 
[V:3] z8 | 
[V:4] z8 | 
[V:1] c8 | 
[V:2] c2B2A4 | 
[V:3] z8 | 
[V:4] z8 | 
[V:1] =B4G4 | 
[V:2] G4z2c2- | 
[V:3] z8 | 
[V:4] z8 | 
[V:1] A4G4- | 
[V:2] cd/e/f2g2e2- | 
[V:3] z8 | 
[V:4] z8 | 
[V:1] G2F2E4 | 
[V:2] edd4^c2 | 
[V:3] z8 | 
[V:4] z8 | 
[V:1] D4z2G2- | 
[V:2] d6B2 | 
[V:3] z8 | 
[V:4] z8 | 
[V:1] GA/=B/c2d2B2- | 
[V:2] c2B2G4 | 
[V:3] z8 | 
[V:4] z8 | 
[V:1] BAA4G2 | 
[V:2] A2c2B4 | 
[V:3] z8 | 
[V:4] z8 | 
[V:1] A6F2 | 
[V:2] A8 | 
[V:3] z8 | 
[V:4] z8 | 
[V:1] G2F2D4 | 
[V:2] B8 | 
[V:3] z8 | 
[V:4] z8 | 
[V:1] E2G2F4 | 
[V:2] c4d4 | 
[V:3] z8 | 
[V:4] z8 | 
[V:1] E8- | 
[V:2] c8 | 
[V:3] z8 | 
[V:4] z8 | 
[V:1] E4F4- | 
[V:2] c4A4 | 
[V:3] z8 | 
[V:4] z8 | 
[V:1] F8 | 
[V:2] B6A2 | 
[V:3] z8 | 
[V:4] z8 | 
[V:1] G4A4- | 
[V:2] G4F4- | 
[V:3] z8 | 
[V:4] z8 | 
[V:1] A4G4- | 
[V:2] F4c4- | 
[V:3] z8 | 
[V:4] z8 | 
[V:1] G8 | 
[V:2] c4B2c2- | 
[V:3] z8 | 
[V:4] z8 | 
[V:1] G4E4 | 
[V:2] cBG4c2 | 
[V:3] z8 | 
[V:4] z8 | 
[V:1] F6E2 | 
[V:2] Bcd4c2 | 
[V:3] z8 | 
[V:4] z8 | 
[V:1] D8 | 
[V:2] d2A2=B4 | 
[V:3] z8 | 
[V:4] z8 | 
[V:1] C8- | 
[V:2] c4z4 | 
[V:3] z8 | 
[V:4] z8 | 
[V:1] C4G4- | 
[V:2] A4B2c2- | 
[V:3] z8 | 
[V:4] z8 | 
[V:1] G4F2G2- | 
[V:2] cBG2A2G2 | 
[V:3] z8 | 
[V:4] z8 | 
[V:1] GFD4G2 | 
[V:2] B3cd2B2 | 
[V:3] z8 | 
[V:4] z8 | 
[V:1] FGA4G2 | 
[V:2] c4d2B2 | 
[V:3] z8 | 
[V:4] z8 | 
[V:1] A2E2F4 | 
[V:2] c4A4 | 
[V:3] z8 | 
[V:4] z8 | 
[V:1] G4z4 | 
[V:2] G4F4 | 
[V:3] z8 | 
[V:4] z8 | 
[V:1] E4F2G2- | 
[V:2] z2A4G2 | 
[V:3] z8 | 
[V:4] z8 | 
[V:1] GFD2E2D2 | 
[V:2] B4c2d2- | 
[V:3] z8 | 
[V:4] z8 | 
[V:1] F3GA2F2 | 
[V:2] d2c4f2- | 
[V:3] z8 | 
[V:4] z8 | 
[V:1] G4A2F2 | 
[V:2] f2e2f3e/d/ | 
[V:3] z8 | 
[V:4] z8 | 
[V:1] G4E4 | 
[V:2] c2B2c2c2- | 
[V:3] z8 | 
[V:4] z8 | 
[V:1] D4C4 | 
[V:2] c2=B2c4 | 
[V:3] z8 | 
[V:4] z8 | 
[V:1] z2E4D2 | 
[V:2] z8 | 
[V:3] z8 | 
[V:4] C,8 | 
[V:1] F4G2A2- | 
[V:2] z8 | 
[V:3] z8 | 
[V:4] D,4C,4 | 
[V:1] A2G4c2- | 
[V:2] z8 | 
[V:3] z8 | 
[V:4] A,,2B,,2C,4 | 
[V:1] c2=B2c3B/A/ | 
[V:2] z8 | 
[V:3] z8 | 
[V:4] F,2G,2A,3B, | 
[V:1] G2F2G2G2- | 
[V:2] z8 | 
[V:3] z8 | 
[V:4] C2D2B,2G,2 | 
[V:1] G2^F2G4 | 
[V:2] z8 | 
[V:3] z8 | 
[V:4] A,4G,4 | 
[V:1] z8 | 
[V:2] d6e2 | 
[V:3] z8 | 
[V:4] B,6A,2 | 
[V:1] z8 | 
[V:2] f4d2e2- | 
[V:3] z8 | 
[V:4] F,4G,4 | 
[V:1] z8 | 
[V:2] edd4^c2 | 
[V:3] z8 | 
[V:4] D,2F,2E,4 | 
[V:1] z8 | 
[V:2] d8 | 
[V:3] z8 | 
[V:4] D,4z2F,2- | 
[V:1] z8 | 
[V:2] d4e4 | 
[V:3] z8 | 
[V:4] F,2D,2C,4 | 
[V:1] z8 | 
[V:2] d4g4- | 
[V:3] z8 | 
[V:4] D,4C,4 | 
[V:1] z8 | 
[V:2] g2f2d4 | 
[V:3] G8 | 
[V:4] z8 | 
[V:1] z8 | 
[V:2] c2f2e2g2- | 
[V:3] A4G4 | 
[V:4] z2C4B,2 | 
[V:1] z8 | 
[V:2] gff4e2 | 
[V:3] E2F2G4 | 
[V:4] C2A,2G,4 | 
[V:1] A6=B2 | 
[V:2] f4z4 | 
[V:3] c2d2e3f | 
[V:4] F,4C4- | 
[V:1] c4A2=B2- | 
[V:2] z8 | 
[V:3] g2a2f2d2 | 
[V:4] C4D4 | 
[V:1] BAA4G2 | 
[V:2] z8 | 
[V:3] e4d4 | 
[V:4] C2A,2B,3A,/G,/ | 
[V:1] A8 | 
[V:2] z8 | 
[V:3] f6e2 | 
[V:4] F,8 | 
[V:1] A4B4 | 
[V:2] z4f4- | 
[V:3] c4d4 | 
[V:4] F,4B,,4 | 
[V:1] A4d4- | 
[V:2] f8- | 
[V:3] A2c2B4 | 
[V:4] F,4z2B,,2 | 
[V:1] d2c2A4 | 
[V:2] f4f4 | 
[V:3] A4z2c2- | 
[V:4] D,3E,F,4 | 
[V:1] G2c2=B2d2- | 
[V:2] e3cd2e2 | 
[V:3] c2A2G4 | 
[V:4] C,4z4 | 
[V:1] dcc4=B2 | 
[V:2] f4z2g2- | 
[V:3] A4G4 | 
[V:4] C4D4 | 
[V:1] c4z4 | 
[V:2] gef2g2e2 | 
[V:3] z8 | 
[V:4] C2A,2G,2C2- | 
[V:1] z8 | 
[V:2] d4c4 | 
[V:3] z2g4f2 | 
[V:4] C2B,2C2A,2 | 
[V:1] z8 | 
[V:2] z4g4 | 
[V:3] g2e2d4 | 
[V:4] G,4z2B,2 | 
[V:1] z8 | 
[V:2] a4g2e2- | 
[V:3] c4g4- | 
[V:4] A,2C2B,2C2- | 
[V:1] z8 | 
[V:2] e2def4 | 
[V:3] g4a4 | 
[V:4] CB,A,G,F,4 | 
[V:1] z8 | 
[V:2] e2c2d4 | 
[V:3] g2e2f3e/d/ | 
[V:4] z4B,,4 | 
[V:1] z4c4- | 
[V:2] e3fg2a2- | 
[V:3] c8 | 
[V:4] C,3D,E,2F,2- | 
[V:1] c8- | 
[V:2] a2g2a2f2 | 
[V:3] c4F4 | 
[V:4] F,2E,2F,4 | 
[V:1] c8- | 
[V:2] e4z2f2 | 
[V:3] c4z2F2 | 
[V:4] C,4F,4- | 
[V:1] c4c4 | 
[V:2] f4e2c2 | 
[V:3] A3=Bc4 | 
[V:4] F,4C,4 | 
[V:1] =B3GA2B2 | 
[V:2] d3ef4 | 
[V:3] G4z4 | 
[V:4] z2G,2F,2D,2 | 
[V:1] c4z2d2- | 
[V:2] e4f2d2 | 
[V:3] g4a4 | 
[V:4] C,4F,4 | 
[V:1] d=Bc2d2B2 | 
[V:2] e4z2d2- | 
[V:3] g2e2d2g2- | 
[V:4] G,2A,2B,2G,2 | 
[V:1] A4G4 | 
[V:2] d2c2d2c2 | 
[V:3] g2f2g2e2 | 
[V:4] A,4B,2C2 | 
[V:1] z4d4 | 
[V:2] G2c2=B=B2A | 
[V:3] d4z2f2 | 
[V:4] B,2C2D4 | 
[V:1] e4d2=B2- | 
[V:2] c4d4 | 
[V:3] e2g2f2g2- | 
[V:4] C4z2G,2- | 
[V:1] B2A=Bc4 | 
[V:2] e2g2z2c2 | 
[V:3] gfedc4 | 
[V:4] G,4A,4 | 
[V:1] =B2G2A4 | 
[V:2] d2e2f4 | 
[V:3] z4F4 | 
[V:4] G,2E,2D,4 | 
[V:1] =B3cd2e2- | 
[V:2] d4g4- | 
[V:3] G3A=B2c2- | 
[V:4] z2G,4E,2- | 
[V:1] e2d2e2c2 | 
[V:2] g4e3c | 
[V:3] c2=B2c4 | 
[V:4] E,F,G,2C,4 | 
[V:1] =B4z2c2 | 
[V:2] d4c4 | 
[V:3] G4c4- | 
[V:4] z2G,2A,2F,2- | 
[V:1] c4=B2G2 | 
[V:2] f2f3eed | 
[V:3] c4G4 | 
[V:4] F,2A,2G,4 | 
[V:1] A3=Bc4 | 
[V:2] f3ga4 | 
[V:3] z2d2c2A2 | 
[V:4] F,8 | 
[V:1] =B4c2A2 | 
[V:2] z2g2e2f2 | 
[V:3] G4c4 | 
[V:4] G,4A,4 | 
[V:1] =B4z2A2- | 
[V:2] g4a2f2 | 
[V:3] d2e2f2d2 | 
[V:4] G,4F,3D, | 
[V:1] A2G2A2G2 | 
[V:2] e4d2e2 | 
[V:3] e4f2g2 | 
[V:4] C,4z2C,2 | 
[V:1] D2G2^FF2E | 
[V:2] f2c2z2d2- | 
[V:3] f2g2a4 | 
[V:4] D,2E,2D,4 | 
[V:1] G4A4 | 
[V:2] d2B2A4 | 
[V:3] g4z2d2- | 
[V:4] G,2G,3E,F,2 | 
[V:1] =B2d2z2G2 | 
[V:2] z2B2c4 | 
[V:3] d4e4 | 
[V:4] G,4C,4 | 
[V:1] A2=B2c4 | 
[V:2] d4c4 | 
[V:3] d2=B2A4 | 
[V:4] F,2G,2A,2F,2- | 
[V:1] A4d4- | 
[V:2] d4B3c | 
[V:3] z2d4B2- | 
[V:4] F,2D,4G,2- | 
[V:1] d4=B3G | 
[V:2] d4z2g2- | 
[V:3] Bcd2G4 | 
[V:4] G,2F,2G,2E,2 | 
[V:1] A4G4 | 
[V:2] g2f2g4 | 
[V:3] z2d2e2c2- | 
[V:4] D,4z2E,2 | 
[V:1] c2c3=BBA | 
[V:2] f2g3fd2 | 
[V:3] c2e2d4 | 
[V:4] F,2E,2G,4 | 
[V:1] c3de4 | 
[V:2] e8 | 
[V:3] c8 | 
[V:4] z4C4 | 
[V:1] z2d2=B2c2 | 
[V:2] d4z4 | 
[V:3] d4e4 | 
[V:4] B,2G,4A,2 | 
[V:1] d4e2c2 | 
[V:2] z8 | 
[V:3] d4c3A | 
[V:4] B,2G,3E,F,2 | 
[V:1] =B4A2B2 | 
[V:2] d3ef2g2- | 
[V:3] G4z2G2 | 
[V:4] G,4z4 | 
[V:1] c2G2z2A2- | 
[V:2] gfedc3B | 
[V:3] A2=B2A4 | 
[V:4] z8 | 
[V:1] A2F2E4 | 
[V:2] d4z2A2 | 
[V:3] d2d3=Bc2 | 
[V:4] z8 | 
[V:1] z2F2G4 | 
[V:2] B2F2B3c | 
[V:3] d4G4 | 
[V:4] D,4G,4 | 
[V:1] A4G4 | 
[V:2] A3Bc4 | 
[V:3] c2d2e2c2- | 
[V:4] F,3E,C,4 | 
[V:1] A4F3G | 
[V:2] z2c4d2 | 
[V:3] c2A4d2- | 
[V:4] F,3G,A,2B,2 | 
[V:1] A4z2d2- | 
[V:2] f2f3de2 | 
[V:3] d2c2d2=B2 | 
[V:4] A,4G,4 | 
[V:1] d2c2d4 | 
[V:2] f3eg4 | 
[V:3] A4z2=B2 | 
[V:4] F,2A,2G,4 | 
[V:1] c2d3cA2 | 
[V:2] e2d2f4 | 
[V:3] c2=B2d4 | 
[V:4] z4D,4 | 
[V:1] B8 | 
[V:2] g3fd4 | 
[V:3] z4g4 | 
[V:4] G,3A,B,2C2 | 
[V:1] A4z4 | 
[V:2] z2f2g2a2- | 
[V:3] f2d4e2 | 
[V:4] D4B,2A,2- | 
[V:1] z8 | 
[V:2] a2gfe4 | 
[V:3] f2d3=B^c2 | 
[V:4] A,F,G,2A,4 | 
[V:1] A3Bc2d2- | 
[V:2] d2f2e2d2- | 
[V:3] d4z4 | 
[V:4] D,4z2F,2 | 
[V:1] dcBAG3F | 
[V:2] d2c2B4 | 
[V:3] z8 | 
[V:4] B,,2F,2G,4 | 
[V:1] A4z2E2 | 
[V:2] A2d4c2 | 
[V:3] z8 | 
[V:4] F,4z4 | 
[V:1] F2C2F3G | 
[V:2] d2c2A4 | 
[V:3] A4d4 | 
[V:4] D,2E,2F,4 | 
[V:1] E3FG4 | 
[V:2] G4z2c2 | 
[V:3] c3=BG4 | 
[V:4] C,8 | 
[V:1] z2G4A2 | 
[V:2] c3B/A/G2F2 | 
[V:3] c3de2f2 | 
[V:4] C,4z4 | 
[V:1] c2c3A=B2 | 
[V:2] z2c2d3c/B/ | 
[V:3] e4d4 | 
[V:4] C,4F,2G,2 | 
[V:1] c3=Bd4 | 
[V:2] A4z2d2- | 
[V:3] c2e2d4 | 
[V:4] A,4D,4- | 
[V:1] =B2A2c4 | 
[V:2] d2f2e4 | 
[V:3] z4A4 | 
[V:4] D,4z2A,2 | 
[V:1] d3cA4 | 
[V:2] d2f4ed | 
[V:3] d3ef2g2 | 
[V:4] B,2A,2D2C2 | 
[V:1] z2c2d2e2- | 
[V:2] c4z2c2- | 
[V:3] a4f2e2- | 
[V:4] A,4B,2C2- | 
[V:1] e2dc=B4 | 
[V:2] c2f2g2e2 | 
[V:3] ecd2e4 | 
[V:4] C2B,A,G,4 | 
[V:1] A2c2=B2A2- | 
[V:2] f4e2f2 | 
[V:3] A4z2c2 | 
[V:4] F,4G,2F,2- | 
[V:1] A2G2F4 | 
[V:2] d2c3AB2 | 
[V:3] F2c2d4 | 
[V:4] F,2E,2F,2D,2 | 
[V:1] E2A4G2 | 
[V:2] c4d2c2- | 
[V:3] c4z4 | 
[V:4] E,2F,4E,2 | 
[V:1] A2G2E4 | 
[V:2] c2B2AGA2 | 
[V:3] A2B2c4 | 
[V:4] F,2D,2C,4 | 
[V:1] D4z2G2 | 
[V:2] B4c4- | 
[V:3] G8 | 
[V:4] z4C,4- | 
[V:1] G3F/E/D2C2 | 
[V:2] c4A4 | 
[V:3] G4z4 | 
[V:4] C,4F,4 | 
[V:1] z2G2A3G/F/ | 
[V:2] G2c2A2B2 | 
[V:3] G4c2d2 | 
[V:4] G,2E,2F,2D,2 | 
[V:1] E4z2A2- | 
[V:2] c8 | 
[V:3] e4A4- | 
[V:4] C,4F,3G, | 
[V:1] A2c2=B4 | 
[V:2] f4g4 | 
[V:3] A4z2e2 | 
[V:4] A,4G,4 | 
[V:1] A2c4=BA | 
[V:2] a4f2d2 | 
[V:3] f2e2a2g2 | 
[V:4] F,2A,4B,2 | 
[V:1] G4z2G2- | 
[V:2] e4d4 | 
[V:3] e4f2g2- | 
[V:4] C4B,4 | 
[V:1] G2c2d2=B2 | 
[V:2] e2c2z2g2 | 
[V:3] g2fed4 | 
[V:4] C4G,4 | 
[V:1] c4=B2c2 | 
[V:2] e2f2g2f2- | 
[V:3] c4d2c2- | 
[V:4] A,4G,2A,2 | 
[V:1] A2G3EF2 | 
[V:2] f2e3cd2 | 
[V:3] c2=B2c2A2 | 
[V:4] F,2G,2E,2F,2 | 
[V:1] G4A2G2- | 
[V:2] e4f2d2 | 
[V:3] =B2c4=B2 | 
[V:4] E,2C,2F,2G,2 | 
[V:1] G2F2EDE2 | 
[V:2] e2c2z2c2 | 
[V:3] c2A2G4 | 
[V:4] E,2F,2C,4 | 
[V:1] F8 |]  
[V:2] c8 |]  
[V:3] F8 |]  
[V:4] F,8 |]  



